X: 1535
T: Angel Meadow
R: reel
M: 4/4
K: Eminor
|:e7 f/e/|d7 e/f/|g2 ge d3B|e7g|
ed B4-BB|AG A4 AG|E8 -|E8:|
|:G6 AB|d4 B4|e3f e2 dB|
[1 AG B6|G6 AB|d4 B2 BA|B8 -|B8:|
[2 AG E6|g6 ab|f7 e|e8 -|e8||

